assets/images/vector/icons/credit_card_icon.svg

<svg fill="none" height="45" viewBox="0 0 59 45" width="59" xmlns="http://www.w3.org/2000/svg"><g stroke="#111" stroke-linecap="round" stroke-linejoin="round" stroke-width="10"><path d="m5 16.6667h48.3333"/><path d="m11.6673 40h35c3.6819 0 6.6667-2.9848 6.6667-6.6667v-21.6666c0-3.68193-2.9848-6.6667-6.6667-6.6667h-35c-3.68188 0-6.66665 2.98477-6.66665 6.6667v21.6666c0 3.6819 2.98477 6.6667 6.66665 6.6667z"/><path d="m13.334 30h10"/><path d="m41.666 30h3.3333"/></g></svg>

<svg width="59" height="45" viewBox="0 0 59 45" fill="none" xmlns="http://www.w3.org/2000/svg">
<path d="M5 16.6667H53.3333" stroke="#111111" stroke-width="10" stroke-linecap="round" stroke-linejoin="round"/>
<path d="M11.6673 40L46.6673 40C50.3492 40 53.334 37.0152 53.334 33.3333V11.6667C53.334 7.98477 50.3492 5 46.6673 5L11.6673 5C7.98542 5 5.00065 7.98477 5.00065 11.6667V33.3333C5.00065 37.0152 7.98542 40 11.6673 40Z" stroke="#111111" stroke-width="10" stroke-linecap="round" stroke-linejoin="round"/>
<path d="M13.334 30H23.334" stroke="#111111" stroke-width="10" stroke-linecap="round" stroke-linejoin="round"/>
<path d="M41.666 30H44.9993" stroke="#111111" stroke-width="10" stroke-linecap="round" stroke-linejoin="round"/>
</svg>
